X:1
T:Sailing in the Lowlands Low
M:4/4
L:1/8
K:G
 G2 BG E2 D2| GA Bc d4| e2 ee ed Bd| e4 d4| G2B-G E2 D2| GA Bc d4|\
 ed BG A2B-A| G6 z d| e2 e2 d3 B| c2 c2 B3- d| ed BG A2B-A| G6 z2|\
